X: 12127
T: Evermore South
R: reel
M: 4/4
K: Edorian
|:deed egfd|~a2 ge a2 ge|deed egfd|e/f/gdB ABdB|
deed egfd|~a2 ge a2 ge|~a2 ge edBd|ABfd ~e3f:|
|:gfed ~B3f|gfed ~a3f|gfed BddB|defd ~e3f|
gfed ~B3f|gfed a3f|gfdB ABBA|defd e3f:|

